// halling-processerne-noter

/*

Brug CTK ?

*/

// (( alle globale synth defs som ctk proto notes))))
g = CtkProtoNotes(SynthDescLib.global);

g.dict.keysDo{|k| k.postln}



p.play


e = (0.0, 0.01 .. 1.0).linexp(0.0, 1.0, 0.0001, 1.0)

Pgeom




p.xline(100).list